X:1
T:[ID 3-1]
T:[ID 3-1]
T:Bezeichnung standardisiert: Menuett Men
T:Urheber unbekannt Datum in der hier transkribierten schriftlichen Quelle: 1767
C:Urheber unbekannt
C:Datum in der hier transkribierten schriftlichen Quelle: 1767
%%score 1 2
L:1/8
M:3/4
K:G
V:1 treble nm="Primo"
V:2 treble nm="Secondo"
V:1
 g4 GA | (3BcB (3ABA G2 | a4 de | (3fgf (3efe d2 | (d'b)(bg)(gd) | (d'b)(bg)(gd) | ab c'2 b2 | %7
{b} a6 :: a4 b2 | agab c'2 | b4 c'2 | babc' d'2 | (d'b)(bg)(gd) | (d'b)(bg)(gd) | (3gbg d2 BG | %15
{B} A4 G2 :| %16
V:2
 !fermata!B4 GA | (3BcB (3ABA G2 |{g} f4 de | (3fgf (3efe d2 | (bg)(gd)(dB) | (bg)(gd)(dB) | %6
 fg a2 g2 |{g} f6 :: f4 g2 | fefg a2 | g4 a2 | gfga b2 | (bg)(gd)(dB) | (bg)(gd)(dB) | %14
 (3BdB G2 DB, |{D} C4 B,2 :| %16

